X:13
T:Lowlands Away (a)
M:C|
L:1/8
Q:1/4=3D100
K:CDOR
c4 G4|cded c2B2|G6 F2|
B3c d2B2|c2B2 F2BA|G4 F2E2|C6||
C2|\
EFGE FEC2|c4 G4|cded c2B2|G6 F2|
B3c d2B2|c2B2 F2BA|G4 F2E2|C6||
